FINK
CUT[ICH DENK AN EUCH]
REG[Europa, Mitteleuropa, Deutschland]
KEY[F1072  16  C 4/4]
MEL[-5_-5_-5_  -3__.-3_-3_-3_-4_.-5  -5_.-4-2__0__
    -7__  1__.-7-6-5_-3_-2_-3-4  -4__-3__0_
    -5_1_3_  2__.3_4_2_1-7-6-5  -5_.11__0_
    1_-7_-7b_  -6_-6_-7_1_-5__-6_-7_  1__0__. //] >>
FCT[Trost - Lied]
